app/images/dist/message.svg

<svg width="20" height="20" viewBox="0 0 20 20" fill="none" xmlns="http://www.w3.org/2000/svg">
<path d="M6.66797 10.1667H12.5013" stroke="#292D32" stroke-width="1.5" stroke-miterlimit="10" stroke-linecap="round" stroke-linejoin="round"/>
<path d="M6.66797 13.5H10.318" stroke="#292D32" stroke-width="1.5" stroke-miterlimit="10" stroke-linecap="round" stroke-linejoin="round"/>
<path d="M8.33464 5.00008H11.668C13.3346 5.00008 13.3346 4.16675 13.3346 3.33341C13.3346 1.66675 12.5013 1.66675 11.668 1.66675H8.33464C7.5013 1.66675 6.66797 1.66675 6.66797 3.33341C6.66797 5.00008 7.5013 5.00008 8.33464 5.00008Z" stroke="#292D32" stroke-width="1.5" stroke-miterlimit="10" stroke-linecap="round" stroke-linejoin="round"/>
<path d="M13.3333 3.34998C16.1083 3.49998 17.5 4.52498 17.5 8.33331V13.3333C17.5 16.6666 16.6667 18.3333 12.5 18.3333H7.5C3.33333 18.3333 2.5 16.6666 2.5 13.3333V8.33331C2.5 4.53331 3.89167 3.49998 6.66667 3.34998" stroke="#292D32" stroke-width="1.5" stroke-miterlimit="10" stroke-linecap="round" stroke-linejoin="round"/>
</svg>

<svg width="20" height="20" fill="none" xmlns="http://www.w3.org/2000/svg"><path d="M6.668 10.167h5.833M6.668 13.5h3.65M8.335 5h3.333c1.667 0 1.667-.833 1.667-1.667 0-1.666-.834-1.666-1.667-1.666H8.335c-.834 0-1.667 0-1.667 1.666C6.668 5 7.501 5 8.335 5Z" stroke="#292D32" stroke-width="1.5" stroke-miterlimit="10" stroke-linecap="round" stroke-linejoin="round"/><path d="M13.333 3.35c2.775.15 4.167 1.175 4.167 4.983v5c0 3.334-.833 5-5 5h-5c-4.167 0-5-1.666-5-5v-5c0-3.8 1.392-4.833 4.167-4.983" stroke="#292D32" stroke-width="1.5" stroke-miterlimit="10" stroke-linecap="round" stroke-linejoin="round"/></svg>
